polaris-icons/icons/BoldMajor.svg

<svg xmlns="http://www.w3.org/2000/svg" viewBox="0 0 20 20"><path fill="#5C5F62" fill-rule="evenodd" d="M6 3a1 1 0 0 0-1 1v11.961c0 .574.465 1.039 1.038 1.039h3.962a4 4 0 0 0 1.85-7.547 3.75 3.75 0 0 0-2.6-6.453h-3.25Zm3.25 6a2.25 2.25 0 0 0 0-4.5h-2.75v4.5h2.75Zm-2.75 1.5v5h3.5a2.5 2.5 0 0 0 0-5h-3.5Z"/></svg>

<svg xmlns="http://www.w3.org/2000/svg" viewBox="0 0 20 20"><path fill="#5C5F62" fill-rule="evenodd" d="M6 3a1 1 0 0 0-1 1v11.961C5 16.535 5.465 17 6.038 17H10a4 4 0 0 0 1.85-7.547A3.75 3.75 0 0 0 9.25 3H6Zm3.25 6a2.25 2.25 0 0 0 0-4.5H6.5V9h2.75ZM6.5 10.5v5H10a2.5 2.5 0 0 0 0-5H6.5Z"/></svg>
